img/icons/design/crop.svg

<svg xmlns="http://www.w3.org/2000/svg" viewBox="0 0 48 48"><path d="M48 36H38V10H12V0h-2v10H0v2h10v26h26v10h2V38h10zm-36 0V12h24v24z" fill="#231f20" data-name="Layer 2"/></svg>

<svg xmlns="http://www.w3.org/2000/svg" viewBox="0 0 48 48"><defs><style>.cls-1{fill:#231f20;}</style></defs><title>Crop</title><g id="Layer_2" data-name="Layer 2"><g id="Icons"><g id="Design"><path id="Crop" class="cls-1" d="M48,36H38V10H12V0H10V10H0v2H10V38H36V48h2V38H48ZM12,36V12H36V36Z"/></g></g></g></svg>
